brandFactory_export/1.Light/Descuento_1Light.svg

<?xml version="1.0" encoding="UTF-8"?>
<svg width="24px" height="24px" viewBox="0 0 24 24" version="1.1" xmlns="http://www.w3.org/2000/svg" xmlns:xlink="http://www.w3.org/1999/xlink">
    <title>1.Light/Descuento_1Light</title>
    <g id="Symbols" stroke="none" stroke-width="1" fill="none" fill-rule="evenodd">
        <g id="1.Light/Descuento_1Light" fill="#5CB615" fill-rule="nonzero">
            <path d="M23.6571429,1.61008403 L23.6470588,1.61008403 L23.6470588,11.5932773 C23.5563025,12.097479 23.3109244,12.5579832 22.9411765,12.9142857 L12.9478992,22.8470588 C12.5344538,23.3042017 11.9596639,23.5798319 11.3478992,23.6201681 C10.9781513,23.6336134 10.6218487,23.4957983 10.3529412,23.2436975 L0.406722689,13.3109244 C-0.205042017,12.497479 -0.0504201681,11.3411765 0.756302521,10.7159664 L10.7596639,0.695798319 C11.1060968,0.34290092 11.5494621,0.100746236 12.0336134,0 L22.0470588,0 C22.9344538,0 23.6571429,0.719327731 23.6571429,1.61008403 Z M22.6621849,11.4453782 L22.6621849,1.61008403 C22.6621849,1.27058824 22.3865546,0.994957983 22.0470588,0.994957983 L12.2117647,0.994957983 C11.9260504,1.05882353 11.6672269,1.21008403 11.4655462,1.42184874 L1.43193277,11.405042 C0.99514112,11.8420168 0.894117647,12.389916 1.09243697,12.5848739 L11.0386555,22.5210084 C11.2369748,22.7193277 11.805042,22.6084034 12.2319328,22.1848739 L22.2453782,12.1915966 C22.4605042,11.9932773 22.605042,11.7310924 22.6621849,11.4453782 Z M17.7714286,2.62184874 C18.5445378,2.68235294 19.2672269,3.04201681 19.7781513,3.62689076 C20.3697479,4.1512605 20.7260504,4.88739496 20.7731092,5.67394958 C20.7529412,6.4605042 20.4134454,7.20336134 19.8285714,7.73109244 C19.3142857,8.29579832 18.6016807,8.63193277 17.8386555,8.67563025 C17.0487395,8.63193277 16.3058824,8.27226891 15.7781513,7.68067227 C15.1865546,7.15294118 14.8302521,6.41344538 14.7831933,5.62352941 C14.8033613,4.83697479 15.1462185,4.09411765 15.7277311,3.56638655 C16.2554622,2.99159664 16.9915966,2.65210084 17.7714286,2.62184874 Z M19.1529412,6.95462185 C19.5327731,6.62521008 19.7647059,6.15462185 19.7882353,5.65378151 C19.7512605,5.12941176 19.5092437,4.63865546 19.112605,4.29243697 C18.7697479,3.89915966 18.2823529,3.65714286 17.7613445,3.61680672 C17.2470588,3.64705882 16.7663866,3.88235294 16.4268908,4.27226891 C16.0403361,4.60840336 15.805042,5.08235294 15.7714286,5.59327731 C15.8084034,6.11764706 16.0504202,6.60840336 16.4470588,6.95462185 C16.7966387,7.34453782 17.287395,7.57983193 17.8084034,7.61008403 C18.3226891,7.56302521 18.8,7.33109244 19.1529412,6.95462185 L19.1529412,6.95462185 Z" id="Descuento_1Light"></path>
        </g>
    </g>
</svg>

<svg width="24" height="24" viewBox="0 0 24 24" xmlns="http://www.w3.org/2000/svg"><path d="M23.657 1.61h-.01v9.983c-.09.504-.336.965-.706 1.321l-9.993 9.933a2.367 2.367 0 01-1.6.773 1.381 1.381 0 01-.995-.376L.407 13.31a1.865 1.865 0 01.35-2.595L10.76.696C11.106.343 11.55.1 12.034 0h10.013c.887 0 1.61.72 1.61 1.61zm-.995 9.835V1.61a.615.615 0 00-.615-.615h-9.835a1.48 1.48 0 00-.746.427L1.432 11.405c-.437.437-.538.985-.34 1.18l9.947 9.936c.198.198.766.087 1.193-.336l10.013-9.993c.216-.199.36-.46.417-.747zm-4.89-8.823c.773.06 1.495.42 2.006 1.005a2.97 2.97 0 01.995 2.047c-.02.787-.36 1.53-.944 2.057a2.91 2.91 0 01-1.99.945 2.987 2.987 0 01-2.06-.995 2.993 2.993 0 01-.996-2.057c.02-.787.363-1.53.945-2.058a2.928 2.928 0 012.043-.944zm1.38 4.333c.38-.33.613-.8.636-1.301a1.993 1.993 0 00-.675-1.362 1.998 1.998 0 00-1.352-.675c-.514.03-.995.265-1.334.655-.387.336-.622.81-.656 1.321.037.525.28 1.015.676 1.362.35.39.84.625 1.361.655a2.102 2.102 0 001.345-.655z" fill="#5CB615" fill-rule="nonzero"/></svg>
